X:100
T:Wise Maid, The
S:The Session: https://thesession.org/tunes/118#setting118
C:Traditional
R:reel
K:D
M:4/4
L:1/8
Q:1/4=120
DE|: F2FG FEDE| FAAB AFED|d2eg fdec| dBAG BEED| 
| F2FG FEDE| FAAB AFED| d2eg fdec|1 dBAG FD DE:|2 dBAG FD FA |] 
|: d2AG FDFA| dfaf gfeg| fedf eAcA| dfed cA A2|
| BAGB ADFD| dfaf gfed| Bdce dBAG|1 FGEF D2 FA :|2 FGEF D4 |]
